X:21
T:Leslie's March
T:Highland March from Oscar and Malvina
R:march
C:William Reeve (1757-1815)
Z:id:hn-march-21
M:6/8
L:1/8
Q:3/8=120
K:D
|: ~d3 ~d3 | dcB ABc | dcB AGF | G2F E2D | 
~e3 ede | fed eag | fef d2A | def e3 :| 
|: fed eAA | fed eAA | gfe fBB | gfe fBB | 
fed eAA | fed eag | fef d2A | def e3 :| 
|: dfa dfa | dfa afd | egb egb | egb bge | 
dfa dfa | dfa a2g | fef d2A | def e3 :| 

